!!!OTL: 980a. Der Besenbinder.
!!!ARE: Europa, Mitteleuropa, Deutschland
!!!SCT: E0980
!!!TXL: @@DE
!!!YEM: Copyright 1995, estate of Helmut Schaffrath.
**kern	**text	**text
*ICvox	*	*
*M3/8	*	*
*k[f#c#]	*	*
*D:	*	*
{8d	A._Jch	B.
=1	=1	=1
8d	hab	Wenn
8f#	mei-	ich
8a	-nen	kein
=2	=2	=2
(8.dd	Wei-	Geld
16cc#)	-ʒen	.
8b	am	im
=3	=3	=3
8.b/	Berg	Beu-
16a	ge-	-tel
8a	-ſät,	hab,
=4	=4	=4
8.b/	Berg	Beu-
16a	ge-	-tel
8a}	-ſät,	hab,
=5	=5	=5
{8f#	hat	geh
8f#	mir'n	ich
8f#	der	in
=6	=6	=6
8.a	böh-	Wald,
16e	-mi-	.
8e	-ſche	ſchneid
=7	=7	=7
8.g	Wind	Rei-
16f#	ver-	ſer
8f#	-weht,	ab,
=8	=8	=8
8.g	Wind	Rei-
16f#	ver-	-ſcher
8f#}	-weht,	ab,
=9	=9	=9
{8d	hat	geh
8f#	mir'n	ich
8a	der	in
=10	=10	=10
4dd	böhm-	Wald,
8ff#	-ſche	ſchneid
=11	=11	=11
4ee	Wind	Rei-
8cc#	ver-	-ſer
=12	=12	=12
4dd}	-weht.	ab.
==	==	==
!!!AGN: Tanz - Lied, Reigen; Besenbinder - Lied
!!!ONB: ESAC (Essen Associative Code) Database: ERK2
!!!AMT: simple triple
!!!AIN: vox
!!!EED: Helmut Schaffrath
!!!EEV: 1.0
!!!GTL: Tanz- und Spiellieder.
!!!URL-scan: https://rosdok.uni-rostock.de/mcrviewer/recordIdentifier/rosdok_ppn745177662/iview2/phys_0750.iview2?x=-167.68545784026423&y=457.4354942184873&scale=0.6546206717328796&rotation=0&layout=singlePageLayout
!!!ENC: Anna Maria Matuszewska
!!!EEV: 2024/12/20
*-	*-	*-
